assets/svgs/misc-grey/MiscGrey63.svg

<svg width="40" height="38" viewBox="0 0 40 38" fill="none" xmlns="http://www.w3.org/2000/svg">
<path fill-rule="evenodd" clip-rule="evenodd" d="M9.47903 9.30999H29.918C30.747 9.30999 31.418 9.97999 31.418 10.81C31.418 11.63 30.747 12.31 29.918 12.31H9.47903C8.65003 12.31 7.97903 11.63 7.97903 10.81C7.97903 9.97999 8.65003 9.30999 9.47903 9.30999ZM9.47903 16.94H29.918C30.747 16.94 31.418 17.61 31.418 18.44C31.418 19.27 30.747 19.94 29.918 19.94H9.47903C8.65003 19.94 7.97903 19.27 7.97903 18.44C7.97903 17.61 8.65003 16.94 9.47903 16.94ZM36.543 25.29C36.543 25.39 36.349 25.58 36.043 25.58H18.293C18.269 25.58 18.247 25.58 18.223 25.58C18.17 25.59 18.118 25.59 18.065 25.6C18.019 25.61 17.973 25.62 17.927 25.63C17.879 25.64 17.833 25.66 17.786 25.67C17.739 25.69 17.694 25.71 17.649 25.73C17.607 25.75 17.567 25.77 17.527 25.79C17.48 25.82 17.436 25.85 17.393 25.89C17.374 25.9 17.354 25.91 17.336 25.92L8.79303 33.01V27.08C8.79303 26.25 8.12203 25.58 7.29303 25.58H3.54303C3.23803 25.58 3.04303 25.39 3.04303 25.29V3.88999C3.04303 3.78999 3.23803 3.60999 3.54303 3.60999H36.043C36.349 3.60999 36.543 3.78999 36.543 3.88999V25.29ZM36.043 0.609985H3.54303C1.61403 0.609985 0.0430298 2.07999 0.0430298 3.88999V25.29C0.0430298 27.11 1.61403 28.58 3.54303 28.58H5.79303V36.2C5.79303 36.78 6.12903 37.31 6.65603 37.56C6.85903 37.66 7.07703 37.7 7.29303 37.7C7.63703 37.7 7.97703 37.58 8.25103 37.36L18.834 28.58H36.043C37.973 28.58 39.543 27.11 39.543 25.29V3.88999C39.543 2.07999 37.973 0.609985 36.043 0.609985Z" fill="#1A1919"/>
</svg>

<svg xmlns="http://www.w3.org/2000/svg" fill="none" viewBox="0 0 40 38"><path fill="#1A1919" fill-rule="evenodd" d="M9.479 9.31h20.439c.829 0 1.5.67 1.5 1.5 0 .82-.671 1.5-1.5 1.5H9.479c-.829 0-1.5-.68-1.5-1.5 0-.83.671-1.5 1.5-1.5zm0 7.63h20.439c.829 0 1.5.67 1.5 1.5s-.671 1.5-1.5 1.5H9.479c-.829 0-1.5-.67-1.5-1.5s.671-1.5 1.5-1.5zm27.064 8.35c0 .1-.194.29-.5.29h-17.82c-.053.01-.105.01-.158.02l-.138.03c-.048.01-.094.03-.141.04l-.137.06-.122.06a.897.897 0 00-.134.1l-.057.03-8.543 7.09v-5.93c0-.83-.671-1.5-1.5-1.5h-3.75c-.305 0-.5-.19-.5-.29V3.89c0-.1.195-.28.5-.28h32.5c.306 0 .5.18.5.28v21.4zm-.5-24.68h-32.5c-1.929 0-3.5 1.47-3.5 3.28v21.4c0 1.82 1.571 3.29 3.5 3.29h2.25v7.62c0 .58.336 1.11.863 1.36.203.1.421.14.637.14.344 0 .684-.12.958-.34l10.583-8.78h17.209c1.93 0 3.5-1.47 3.5-3.29V3.89c0-1.81-1.57-3.28-3.5-3.28z" clip-rule="evenodd"/></svg>
